assets/features/home/starmaker-1.svg

<svg width="212" height="48" viewBox="0 0 212 48" fill="none" xmlns="http://www.w3.org/2000/svg">
<path d="M0 9.90476C0 4.43451 4.43053 0 9.89587 0H38.4417C43.907 0 48.3375 4.43451 48.3375 9.90476V38.0952C48.3375 43.5655 43.907 48 38.4417 48H9.89587C4.43053 48 0 43.5655 0 38.0952V9.90476Z" fill="url(#paint0_radial_4887_15016)"/>
<path d="M21.4606 7.17855C22.5934 4.97263 25.7441 4.97263 26.8769 7.17855L30.0519 13.3612C30.4865 14.2077 31.2912 14.8023 32.2274 14.9687L39.0575 16.183C41.4441 16.6074 42.4025 19.5172 40.7361 21.279L35.8116 26.4851L35.696 26.6142C35.1392 27.2741 34.8868 28.1426 35.0072 29.0033L36.0015 36.1075C36.3371 38.5055 33.8865 40.3024 31.717 39.3006L31.6141 39.2511L25.5407 36.1826C24.6779 35.7468 23.6596 35.7468 22.7968 36.1826L16.7234 39.2511L16.6205 39.3006C14.4855 40.2865 12.0783 38.562 12.3222 36.2213L12.336 36.1075L13.3303 29.0033C13.4588 28.0852 13.1627 27.1583 12.5259 26.4851L7.60142 21.279C5.93501 19.5172 6.89343 16.6074 9.27997 16.183L16.1101 14.9687C17.0463 14.8023 17.851 14.2077 18.2856 13.3612L21.4606 7.17855ZM24.846 8.22356C24.5628 7.67207 23.7751 7.67207 23.4919 8.22356L20.3169 14.4062C19.5563 15.8875 18.1477 16.9282 16.5093 17.2195L9.67953 18.4338C9.08286 18.5398 8.84326 19.2671 9.2599 19.7076L14.1844 24.9137C15.2988 26.0918 15.8169 27.7136 15.592 29.3203L14.5977 36.4245C14.5125 37.0335 15.1461 37.4877 15.6946 37.2105L21.7676 34.1421C23.2776 33.3792 25.0599 33.3792 26.5699 34.1421L32.6429 37.2105C33.1914 37.4877 33.825 37.0335 33.7398 36.4245L32.7455 29.3203C32.5206 27.7136 33.0387 26.0918 34.1531 24.9137L39.0776 19.7076C39.4942 19.2671 39.2546 18.5398 38.658 18.4338L31.8282 17.2195C30.1898 16.9282 28.7812 15.8875 28.0206 14.4062L24.846 8.22356Z" fill="white"/>
<path d="M25.4935 35.4285C25.4935 35.4285 24.6815 35.8095 24.1613 35.8095C23.6411 35.8095 22.8292 35.4285 22.8292 35.4285L21.6948 24.4535C22.414 24.8908 23.2582 25.1428 24.1613 25.1428C25.0643 25.1428 25.9083 24.8907 26.6275 24.4535L25.4935 35.4285ZM23.971 27.0476C23.7608 27.0476 23.5904 27.2182 23.5904 27.4286V29.3333C23.5904 29.5437 23.7608 29.7143 23.971 29.7143C24.1812 29.7143 24.3516 29.5437 24.3516 29.3333V27.4286C24.3516 27.2182 24.1812 27.0476 23.971 27.0476Z" fill="white"/>
<path d="M28.1652 20.5714C28.1652 22.6753 26.4611 24.3809 24.3591 24.3809C22.257 24.3809 20.5529 22.6753 20.5529 20.5714C20.5529 18.4675 22.257 16.7619 24.3591 16.7619C26.4611 16.7619 28.1652 18.4675 28.1652 20.5714Z" fill="white"/>
<path d="M133.677 17.4933C133.858 17.6477 132.87 18.9934 133.812 18.8526C134.753 18.7118 136.441 17.4933 137.599 17.4933H143.956V35.0929C143.348 35.0252 140.44 35.3501 140.44 34.6867V20.7425C137.951 20.3336 133.677 22.3968 133.677 25.2101V35.0929H130.16V20.7425C128.004 20.6369 124.928 21.4844 123.884 23.5313C123.627 24.0349 123.126 26.0846 123.126 26.5639V35.0929H119.877C120.105 30.0675 118.292 23.7831 122.342 19.8246C123.175 19.0096 125.959 17.4933 127.046 17.4933H133.674H133.677Z" fill="#333333"/>
<path d="M79.0318 17.4934C78.8858 18.2596 79.4268 20.7019 78.5882 20.9754L67.5402 21.0187C65.9469 21.5521 65.9171 23.6397 67.5132 24.2841C69.3689 25.0314 72.7937 24.2029 74.9903 24.6523C79.462 25.5729 80.3033 31.9954 76.4213 34.24C76.1346 34.4052 74.2139 35.0929 74.0272 35.0929H62.8007V31.573H73.7567C75.3203 31.573 76.0453 28.8545 74.7063 28.1831C73.8027 27.7309 69.7612 28.1885 68.3464 28.0504C64.2507 27.6442 61.5915 24.1352 63.4716 20.1956C63.8963 19.3048 65.7683 17.4907 66.7205 17.4907H79.0291L79.0318 17.4934Z" fill="#333333"/>
<path d="M168.033 12.6197V26.4285C169.48 25.7002 176.459 17.4934 177.095 17.4934H181.558L173.462 26.2552L181.829 35.0929H177.365C176.914 35.0929 171.701 28.8545 170.873 28.8545C170.275 28.8545 168.444 31.0206 168.241 31.6434C167.865 32.7914 168.079 33.9259 168.035 35.0929C167.427 35.0252 164.516 35.3474 164.516 34.684V12.6169H168.033V12.6197Z" fill="#2F2F2F"/>
<path d="M84.1717 12.6196V17.0872C84.1717 17.117 84.5477 17.4933 84.5775 17.4933H89.5821V20.7425H84.5775C84.5477 20.7425 84.1717 21.1188 84.1717 21.1486V26.0223C84.1717 26.1361 84.5017 27.8419 84.5666 28.0639C85.1861 30.1298 87.6451 31.3699 89.5956 31.73L89.5794 35.0956C85.4567 35.0468 81.5125 31.7165 80.9525 27.6198C80.3574 23.2714 81.031 18.7713 80.9363 14.3687C80.9282 13.9409 80.6387 13.237 80.6847 13.0474C80.8687 12.2649 83.4981 12.7469 84.169 12.6196H84.1717Z" fill="#333333"/>
<path d="M201.847 35.0929C201.082 34.9467 198.642 35.4882 198.368 34.6489C198.114 33.8745 198.244 27.7796 198.333 26.5666C198.734 21.2245 202.045 17.312 207.669 17.2199C209.736 17.1847 208.627 19.2777 208.881 20.7425C206.333 20.7777 203.222 21.3626 202.369 24.1081C202.242 24.517 201.847 26.2688 201.847 26.5612V35.0902V35.0929Z" fill="#2F2F2F"/>
<path d="M112.576 35.0929C111.811 34.9466 109.371 35.4882 109.097 34.6488C108.838 33.8555 108.981 28.0666 109.062 26.8373C109.273 23.6071 109.928 21.2786 112.571 19.2479C113.896 18.2298 117.021 17.0439 118.666 17.2009C120.327 17.358 119.38 19.4699 119.612 20.7452C117.337 20.599 114.283 21.506 113.236 23.7046C113.041 24.1135 112.576 25.6839 112.576 26.0223V35.0929Z" fill="#333333"/>
<path d="M187.239 31.2995L196.415 21.3815C193.337 16.4726 186.052 16.1748 182.497 20.7344C176.497 28.4322 185.416 39.3005 194.519 33.3086C197.549 31.3131 196.321 31.2156 194.378 28.8762C192.263 30.7228 190.22 32.2526 187.239 31.2995ZM184.266 28.3238C182.992 23.7859 186.628 19.7949 191.297 21.2868C191.416 21.7525 191.105 21.8283 190.894 22.099C189.487 23.905 186.888 26.526 185.078 27.9204C184.807 28.1289 184.734 28.4457 184.266 28.3238Z" fill="#333333"/>
<path d="M158.207 18.5277C146.499 12.2379 139.514 31.8789 152.283 34.7463C155.846 35.5451 159.16 34.619 162.622 35.0902C162.511 29.2282 164.491 21.9014 158.21 18.525L158.207 18.5277ZM159.376 31.1668C159.376 31.1966 159 31.573 158.97 31.573C157.369 31.573 155.04 31.7842 153.56 31.573C149.083 30.9367 147.243 25.3644 150.476 22.2588C152.992 19.8409 157.85 20.97 158.976 24.257C159.04 24.4438 159.376 25.933 159.376 26.0224V31.1668Z" fill="#2F2F2F"/>
<path d="M100.203 17.5583C89.0979 15.8119 85.9707 31.7923 96.4046 34.6272C100.03 35.6127 103.571 34.7111 107.166 35.0929V24.127C107.166 21.4465 102.716 17.9537 100.203 17.5583ZM103.92 31.573H98.1034C97.9844 31.573 96.7644 31.1127 96.5101 31.0017C91.1186 28.6379 93.1178 20.1414 99.7049 21.0376C101.699 21.3084 103.922 23.7425 103.922 25.7516V31.573H103.92Z" fill="#2F2F2F"/>
<defs>
<radialGradient id="paint0_radial_4887_15016" cx="0" cy="0" r="1" gradientTransform="matrix(-42.7766 -24.8276 25.0022 -40.3092 48.3375 36)" gradientUnits="userSpaceOnUse">
<stop stop-color="#FF8951"/>
<stop offset="0.33" stop-color="#F64990"/>
<stop offset="0.66" stop-color="#A448D1"/>
<stop offset="1" stop-color="#6E47FB"/>
</radialGradient>
</defs>
</svg>

<svg xmlns="http://www.w3.org/2000/svg" width="212" height="48" fill="none" viewBox="0 0 212 48"><path fill="url(#a)" d="M0 9.905C0 4.435 4.43 0 9.896 0h28.546c5.465 0 9.895 4.435 9.895 9.905v28.19c0 5.47-4.43 9.905-9.895 9.905H9.896C4.43 48 0 43.566 0 38.095z"/><path fill="#fff" d="M21.46 7.179c1.133-2.206 4.284-2.206 5.417 0l3.175 6.182a3.05 3.05 0 0 0 2.175 1.608l6.83 1.214c2.387.424 3.346 3.334 1.68 5.096l-4.925 5.206-.116.13a3.05 3.05 0 0 0-.689 2.388l.995 7.105c.335 2.398-2.116 4.194-4.285 3.193l-.103-.05-6.073-3.068a3.04 3.04 0 0 0-2.744 0l-6.074 3.068-.102.05c-2.135.985-4.543-.739-4.299-3.08l.014-.113.994-7.105a3.05 3.05 0 0 0-.804-2.518L7.6 21.28c-1.666-1.762-.708-4.672 1.679-5.096l6.83-1.214a3.05 3.05 0 0 0 2.176-1.608zm3.386 1.045a.76.76 0 0 0-1.354 0l-3.175 6.182a5.33 5.33 0 0 1-3.808 2.813l-6.83 1.215a.762.762 0 0 0-.42 1.274l4.925 5.206a5.34 5.34 0 0 1 1.408 4.406l-.994 7.105a.761.761 0 0 0 1.097.786l6.073-3.069a5.32 5.32 0 0 1 4.802 0l6.073 3.069a.761.761 0 0 0 1.097-.786l-.995-7.105a5.34 5.34 0 0 1 1.408-4.406l4.925-5.206a.762.762 0 0 0-.42-1.274l-6.83-1.215a5.33 5.33 0 0 1-3.807-2.813z"/><path fill="#fff" d="M25.494 35.429s-.812.38-1.333.38-1.332-.38-1.332-.38l-1.134-10.976c.719.438 1.563.69 2.466.69s1.747-.252 2.467-.69zm-1.523-8.381a.38.38 0 0 0-.38.38v1.905a.38.38 0 1 0 .76 0V27.43a.38.38 0 0 0-.38-.381m4.194-6.478a3.81 3.81 0 0 1-3.806 3.81 3.81 3.81 0 0 1-3.806-3.81 3.81 3.81 0 0 1 3.806-3.81 3.81 3.81 0 0 1 3.806 3.81"/><path fill="#333" d="M133.677 17.493c.181.155-.807 1.5.135 1.36.941-.141 2.629-1.36 3.787-1.36h6.357v17.6c-.608-.068-3.516.257-3.516-.406V20.743c-2.489-.41-6.763 1.654-6.763 4.467v9.883h-3.517v-14.35c-2.156-.106-5.232.741-6.276 2.788-.257.504-.758 2.554-.758 3.033v8.529h-3.249c.228-5.026-1.585-11.31 2.465-15.268.833-.815 3.617-2.332 4.704-2.332zm-54.645 0c-.146.767.395 3.209-.444 3.482l-11.048.044c-1.593.533-1.623 2.62-.027 3.265 1.856.747 5.28-.081 7.477.368 4.472.92 5.313 7.343 1.431 9.588-.286.165-2.207.853-2.394.853H62.801v-3.52h10.956c1.563 0 2.288-2.718.95-3.39-.904-.452-4.946.006-6.36-.133-4.096-.406-6.755-3.915-4.875-7.854.424-.891 2.296-2.705 3.249-2.705h12.308z"/><path fill="#2f2f2f" d="M168.033 12.62v13.809c1.447-.729 8.426-8.936 9.062-8.936h4.463l-8.096 8.762 8.367 8.838h-4.464c-.451 0-5.664-6.239-6.492-6.239-.598 0-2.429 2.167-2.632 2.79-.376 1.147-.162 2.282-.206 3.449-.608-.068-3.519.254-3.519-.409V12.617h3.517z"/><path fill="#333" d="M84.172 12.62v4.467c0 .03.376.406.406.406h5.004v3.25h-5.004c-.03 0-.406.376-.406.406v4.873c0 .114.33 1.82.395 2.042.62 2.066 3.078 3.306 5.029 3.666l-.017 3.366c-4.122-.05-8.066-3.38-8.626-7.476-.596-4.349.078-8.849-.017-13.251-.008-.428-.297-1.132-.251-1.322.184-.782 2.813-.3 3.484-.427z"/><path fill="#2f2f2f" d="M201.847 35.093c-.765-.146-3.205.395-3.479-.444-.254-.775-.124-6.87-.035-8.082.401-5.343 3.712-9.255 9.336-9.347 2.067-.035.958 2.058 1.212 3.523-2.548.035-5.659.62-6.512 3.365-.127.409-.522 2.16-.522 2.453z"/><path fill="#333" d="M112.576 35.093c-.765-.146-3.205.395-3.479-.444-.259-.794-.116-6.582-.035-7.812.211-3.23.866-5.558 3.509-7.59 1.325-1.017 4.45-2.203 6.095-2.046 1.661.157.714 2.269.946 3.544-2.275-.146-5.329.761-6.376 2.96-.195.409-.66 1.979-.66 2.317zm74.663-3.793 9.176-9.919c-3.078-4.908-10.363-5.206-13.918-.647-6 7.698 2.919 18.566 12.022 12.575 3.03-1.996 1.802-2.093-.141-4.433-2.115 1.847-4.158 3.377-7.139 2.423m-2.973-2.976c-1.274-4.538 2.362-8.53 7.031-7.037.119.466-.192.541-.403.812-1.407 1.806-4.006 4.427-5.816 5.821-.271.209-.344.526-.812.404"/><path fill="#2f2f2f" d="M158.207 18.528c-11.708-6.29-18.693 13.35-5.924 16.218 3.563.8 6.877-.127 10.339.344-.111-5.862 1.869-13.189-4.412-16.565zm1.169 12.639c0 .03-.376.406-.406.406-1.601 0-3.93.211-5.41 0-4.477-.636-6.317-6.209-3.084-9.314 2.516-2.418 7.374-1.289 8.5 1.998.064.187.4 1.676.4 1.765zm-59.173-13.609c-11.105-1.746-14.232 14.234-3.798 17.07 3.625.985 7.166.083 10.761.465V24.127c0-2.68-4.45-6.173-6.963-6.569m3.717 14.015h-5.817c-.119 0-1.339-.46-1.593-.571-5.391-2.364-3.392-10.86 3.195-9.964 1.994.27 4.217 2.704 4.217 4.714v5.821z"/><defs><radialGradient id="a" cx="0" cy="0" r="1" gradientTransform="matrix(-42.7766 -24.8276 25.0022 -40.3092 48.337 36)" gradientUnits="userSpaceOnUse"><stop stop-color="#ff8951"/><stop offset=".33" stop-color="#f64990"/><stop offset=".66" stop-color="#a448d1"/><stop offset="1" stop-color="#6e47fb"/></radialGradient></defs></svg>
